icon-themes/breeze_svg/cmd/32/gluevertalignbottom.svg

<svg viewBox="0 0 32 32" xmlns="http://www.w3.org/2000/svg"><path d="m15 20v7h2v-7z" fill="#da4453"/><path d="m4 4v24h24v-24zm1 1h22v22h-22z" fill="#4d4d4d"/><path d="m16 11a5 5 0 0 0 -5 5 5 5 0 0 0 5 5 5 5 0 0 0 5-5 5 5 0 0 0 -5-5zm0 1a4 4 0 0 1 4 4 4 4 0 0 1 -4 4 4 4 0 0 1 -4-4 4 4 0 0 1 4-4z" fill="#1d99f3"/></svg>

<svg xmlns="http://www.w3.org/2000/svg" viewBox="0 0 32 32">
 <path 
     style="fill:#da4453" 
     d="M 15 20 L 15 27 L 17 27 L 17 20 L 15 20 z "
     />
 <path 
     style="fill:#4d4d4d" 
     d="M 4 4 L 4 28 L 28 28 L 28 4 L 4 4 z M 5 5 L 27 5 L 27 27 L 5 27 L 5 5 z "
     />
 <path 
     style="fill:#1d99f3" 
     d="M 16 11 A 5 5 0 0 0 11 16 A 5 5 0 0 0 16 21 A 5 5 0 0 0 21 16 A 5 5 0 0 0 16 11 z M 16 12 A 4 4 0 0 1 20 16 A 4 4 0 0 1 16 20 A 4 4 0 0 1 12 16 A 4 4 0 0 1 16 12 z "
     />
</svg>
